coordinator/assets/favicon.svg

<svg height="400" viewBox="0 0 400 400" width="400" xmlns="http://www.w3.org/2000/svg"><g fill-rule="evenodd"><path d="m0 200v200h200 200v-200-200h-200-200zm316.797-174.088c30.959 5.27 51.107 26.557 55.752 58.906 1.06 7.387 1.073 218.341.013 226.416-4.776 36.399-27.039 59.963-59.867 63.366-7.937.823-225.701.343-229.882-.507-33.377-6.78-53.089-31.065-55.862-68.82-.8-10.893-.326-214.953.512-220.418 5.406-35.252 28.578-56.982 63.553-59.595 8.067-.602 222.04.016 225.781.652m-119.632 24.576c-1.415 1.281-21.71 24.152-24.004 27.051-1.763 2.227-1.95 3.35-.783 4.706l.95 1.105 6.903-.447c7.453-.483 7.961-.432 8.245.831.103.46.321 9.158.485 19.328l.297 18.492.922.747c1.186.96 18.094 1.156 19.368.225 1.015-.743 1.339-3.359 1.366-11.037.013-3.671.14-11.465.282-17.321.295-12.125.26-11.995 3.154-11.599 13.314 1.825 16.941.031 11.939-5.904-15.35-18.213-24.194-27.446-26.289-27.446-1.068 0-1.789.323-2.835 1.269m-102.243 44.413c-6.621.344-9.781 2.08-11.996 6.591l-1.09 2.219-.102 74.007c-.115 84.081-.409 76.705 3.195 80.309 3.878 3.878-8.605 3.481 113.509 3.608 76.097.079 107.952-.012 109.725-.315 5.329-.908 8.98-4.128 9.955-8.781.704-3.356.445-147.632-.268-149.676-1.984-5.688-5.457-7.569-14.725-7.979-15.943-.705-82.244-.416-82.947.362-.937 1.035-.965 12.973-.033 13.906.55.55 4.77.614 40.607.614 42.543 0 41.321-.055 42.66 1.915.651.958.695 4.63.784 65.663.102 69.671.218 65.714-1.979 67.345l-1.104.819-101.045-.15c-109.438-.163-102.601-.013-103.534-2.273-.335-.814-.424-17.6-.348-65.807l.103-64.715.977-1.05c1.597-1.717 1.171-1.697 42.45-1.925 36.665-.203 39.814-.271 40.264-.877.865-1.163.672-12.721-.226-13.533-.733-.664-72.835-.899-84.832-.277m102.978 37.704c-4.862 1.733-4.931 2.094-4.931 25.875v19.913l.908 1.721c2.593 4.915 10.011 4.442 12.666-.807 1.258-2.488 1.377-40.478.135-43.213-1.451-3.193-5.307-4.726-8.778-3.489m-20.815 10.328c-16.401 5.976-26.981 30.058-21.863 49.767 9.081 34.968 52.29 46.513 77.8 20.787 19.432-19.597 16.789-53.497-5.301-67.991-5.824-3.822-9.362-3.665-11.32.5-1.817 3.866-1.04 6.272 3.108 9.623 25.441 20.555 12.873 58.704-19.314 58.623-32.461-.081-45.266-38.458-19.553-58.599 4.644-3.638 5.635-6.823 3.225-10.364-1.869-2.745-3.827-3.423-6.782-2.346m17.314 125.803-22.203.209-.696.86c-.451.558-1.202 3.508-2.137 8.398-.793 4.147-1.698 8.858-2.011 10.469-.602 3.102-1.181 3.893-2.876 3.925-18.547.351-21.253.854-22.972 4.263-1.226 2.432-1.221 5.823.011 7.256l.89 1.034 57.462.003c41.506.001 57.689-.119 58.276-.433 1.928-1.032 1.924-6.009-.007-8.721-1.687-2.368-3.399-2.752-13.661-3.063-12.444-.376-10.85.939-13.213-10.905-1.915-9.598-2.508-11.779-3.421-12.577-.97-.847-6.723-.971-33.442-.718" fill="#faf9f5"/><path d="m91.016 25.26c-34.975 2.613-58.147 24.343-63.553 59.595-.838 5.465-1.312 209.525-.512 220.418 2.773 37.755 22.485 62.04 55.862 68.82 4.181.85 221.945 1.33 229.882.507 32.828-3.403 55.091-26.967 59.867-63.366 1.06-8.075 1.047-219.029-.013-226.416-4.645-32.349-24.793-53.636-55.752-58.906-3.741-.636-217.714-1.254-225.781-.652m111.82 25.228c2.178 1.97 16.901 18.403 23.453 26.177 5.002 5.935 1.375 7.729-11.939 5.904-2.894-.396-2.859-.526-3.154 11.599-.142 5.856-.269 13.65-.282 17.321-.027 7.678-.351 10.294-1.366 11.037-1.274.931-18.182.735-19.368-.225l-.922-.747-.297-18.492c-.164-10.17-.382-18.868-.485-19.328-.284-1.263-.792-1.314-8.245-.831l-6.903.447-.95-1.105c-1.786-2.076-2.172-1.518 12.702-18.378 12.575-14.254 12.976-14.648 14.92-14.648 1.068 0 1.79.323 2.836 1.269m-23.082 44.69c.898.812 1.091 12.37.226 13.533-.45.606-3.599.674-40.264.877-41.279.228-40.853.208-42.45 1.925l-.977 1.05-.103 64.715c-.076 48.207.013 64.993.348 65.807.933 2.26-5.904 2.11 103.534 2.273l101.045.15 1.104-.819c2.197-1.631 2.081 2.326 1.979-67.345-.089-61.033-.133-64.705-.784-65.663-1.339-1.97-.117-1.915-42.66-1.915-35.837 0-40.057-.064-40.607-.614-.932-.933-.904-12.871.033-13.906.703-.778 67.004-1.067 82.947-.362 9.268.41 12.741 2.291 14.725 7.979.713 2.044.972 146.32.268 149.676-.975 4.653-4.626 7.873-9.955 8.781-1.773.303-33.628.394-109.725.315-122.114-.127-109.631.27-113.509-3.608-3.604-3.604-3.31 3.772-3.195-80.309l.102-74.007 1.09-2.219c2.215-4.511 5.375-6.247 11.996-6.591 11.997-.622 84.099-.387 84.832.277m22.394 37.29c2.236.62 3.694 1.787 4.53 3.626 1.242 2.735 1.123 40.725-.135 43.213-2.655 5.249-10.073 5.722-12.666.807l-.908-1.721v-19.913c0-21.648.036-22.058 2.154-24.111 2.077-2.013 4.375-2.635 7.025-1.901m-20.117 10.847c4.562 3.279 4.02 8.091-1.389 12.328-14.845 11.627-17.933 29.915-7.617 45.106 12.532 18.454 41.673 18.263 54.318-.357 10.11-14.887 6.974-32.809-7.834-44.773-3.109-2.512-4.016-3.931-3.981-6.229.224-14.79 21.261-2.229 28.021 16.731 10.59 29.702-11.786 61.223-43.462 61.223-34.5 0-56.727-35.685-41.326-66.35 5.893-11.734 18.362-21.207 23.27-17.679m45.81 126.139c.913.798 1.506 2.979 3.421 12.577 2.363 11.844.769 10.529 13.213 10.905 10.262.311 11.974.695 13.661 3.063 1.931 2.712 1.935 7.689.007 8.721-.587.314-16.77.434-58.276.433l-57.462-.003-.89-1.034c-1.232-1.433-1.237-4.824-.011-7.256 1.719-3.409 4.425-3.912 22.972-4.263 1.695-.032 2.274-.823 2.876-3.925.313-1.611 1.218-6.322 2.011-10.469.935-4.89 1.686-7.84 2.137-8.398l.696-.86 22.203-.209c26.719-.253 32.472-.129 33.442.718" fill="#133f5f"/></g></svg>

<svg id="svg" version="1.1" xmlns="http://www.w3.org/2000/svg" xmlns:xlink="http://www.w3.org/1999/xlink" width="400" height="400" viewBox="0, 0, 400,400"><g id="svgg"><path id="path0" d="M0.000 200.000 L 0.000 400.000 200.000 400.000 L 400.000 400.000 400.000 200.000 L 400.000 0.000 200.000 0.000 L 0.000 0.000 0.000 200.000 M316.797 25.912 C 347.756 31.182,367.904 52.469,372.549 84.818 C 373.609 92.205,373.622 303.159,372.562 311.234 C 367.786 347.633,345.523 371.197,312.695 374.600 C 304.758 375.423,86.994 374.943,82.813 374.093 C 49.436 367.313,29.724 343.028,26.951 305.273 C 26.151 294.380,26.625 90.320,27.463 84.855 C 32.869 49.603,56.041 27.873,91.016 25.260 C 99.083 24.658,313.056 25.276,316.797 25.912 M197.165 50.488 C 195.750 51.769,175.455 74.640,173.161 77.539 C 171.398 79.766,171.211 80.889,172.378 82.245 L 173.328 83.350 180.231 82.903 C 187.684 82.420,188.192 82.471,188.476 83.734 C 188.579 84.194,188.797 92.892,188.961 103.062 L 189.258 121.554 190.180 122.301 C 191.366 123.261,208.274 123.457,209.548 122.526 C 210.563 121.783,210.887 119.167,210.914 111.489 C 210.927 107.818,211.054 100.024,211.196 94.168 C 211.491 82.043,211.456 82.173,214.350 82.569 C 227.664 84.394,231.291 82.600,226.289 76.665 C 210.939 58.452,202.095 49.219,200.000 49.219 C 198.932 49.219,198.211 49.542,197.165 50.488 M94.922 94.901 C 88.301 95.245,85.141 96.981,82.926 101.492 L 81.836 103.711 81.734 177.718 C 81.619 261.799,81.325 254.423,84.929 258.027 C 88.807 261.905,76.324 261.508,198.438 261.635 C 274.535 261.714,306.390 261.623,308.163 261.320 C 313.492 260.412,317.143 257.192,318.118 252.539 C 318.822 249.183,318.563 104.907,317.850 102.863 C 315.866 97.175,312.393 95.294,303.125 94.884 C 287.182 94.179,220.881 94.468,220.178 95.246 C 219.241 96.281,219.213 108.219,220.145 109.152 C 220.695 109.702,224.915 109.766,260.752 109.766 C 303.295 109.766,302.073 109.711,303.412 111.681 C 304.063 112.639,304.107 116.311,304.196 177.344 C 304.298 247.015,304.414 243.058,302.217 244.689 L 301.113 245.508 200.068 245.358 C 90.630 245.195,97.467 245.345,96.534 243.085 C 96.199 242.271,96.110 225.485,96.186 177.278 L 96.289 112.563 97.266 111.513 C 98.863 109.796,98.437 109.816,139.716 109.588 C 176.381 109.385,179.530 109.317,179.980 108.711 C 180.845 107.548,180.652 95.990,179.754 95.178 C 179.021 94.514,106.919 94.279,94.922 94.901 M197.900 132.605 C 193.038 134.338,192.969 134.699,192.969 158.480 L 192.969 178.393 193.877 180.114 C 196.470 185.029,203.888 184.556,206.543 179.307 C 207.801 176.819,207.920 138.829,206.678 136.094 C 205.227 132.901,201.371 131.368,197.900 132.605 M177.085 142.933 C 160.684 148.909,150.104 172.991,155.222 192.700 C 164.303 227.668,207.512 239.213,233.022 213.487 C 252.454 193.890,249.811 159.990,227.721 145.496 C 221.897 141.674,218.359 141.831,216.401 145.996 C 214.584 149.862,215.361 152.268,219.509 155.619 C 244.950 176.174,232.382 214.323,200.195 214.242 C 167.734 214.161,154.929 175.784,180.642 155.643 C 185.286 152.005,186.277 148.820,183.867 145.279 C 181.998 142.534,180.040 141.856,177.085 142.933 M194.399 268.736 L 172.196 268.945 171.500 269.805 C 171.049 270.363,170.298 273.313,169.363 278.203 C 168.570 282.350,167.665 287.061,167.352 288.672 C 166.750 291.774,166.171 292.565,164.476 292.597 C 145.929 292.948,143.223 293.451,141.504 296.860 C 140.278 299.292,140.283 302.683,141.515 304.116 L 142.405 305.150 199.867 305.153 C 241.373 305.154,257.556 305.034,258.143 304.720 C 260.071 303.688,260.067 298.711,258.136 295.999 C 256.449 293.631,254.737 293.247,244.475 292.936 C 232.031 292.560,233.625 293.875,231.262 282.031 C 229.347 272.433,228.754 270.252,227.841 269.454 C 226.871 268.607,221.118 268.483,194.399 268.736 " stroke="none" fill="#faf9f5" fill-rule="evenodd"></path><path id="path1" d="M91.016 25.260 C 56.041 27.873,32.869 49.603,27.463 84.855 C 26.625 90.320,26.151 294.380,26.951 305.273 C 29.724 343.028,49.436 367.313,82.813 374.093 C 86.994 374.943,304.758 375.423,312.695 374.600 C 345.523 371.197,367.786 347.633,372.562 311.234 C 373.622 303.159,373.609 92.205,372.549 84.818 C 367.904 52.469,347.756 31.182,316.797 25.912 C 313.056 25.276,99.083 24.658,91.016 25.260 M202.836 50.488 C 205.014 52.458,219.737 68.891,226.289 76.665 C 231.291 82.600,227.664 84.394,214.350 82.569 C 211.456 82.173,211.491 82.043,211.196 94.168 C 211.054 100.024,210.927 107.818,210.914 111.489 C 210.887 119.167,210.563 121.783,209.548 122.526 C 208.274 123.457,191.366 123.261,190.180 122.301 L 189.258 121.554 188.961 103.062 C 188.797 92.892,188.579 84.194,188.476 83.734 C 188.192 82.471,187.684 82.420,180.231 82.903 L 173.328 83.350 172.378 82.245 C 170.592 80.169,170.206 80.727,185.080 63.867 C 197.655 49.613,198.056 49.219,200.000 49.219 C 201.068 49.219,201.790 49.542,202.836 50.488 M179.754 95.178 C 180.652 95.990,180.845 107.548,179.980 108.711 C 179.530 109.317,176.381 109.385,139.716 109.588 C 98.437 109.816,98.863 109.796,97.266 111.513 L 96.289 112.563 96.186 177.278 C 96.110 225.485,96.199 242.271,96.534 243.085 C 97.467 245.345,90.630 245.195,200.068 245.358 L 301.113 245.508 302.217 244.689 C 304.414 243.058,304.298 247.015,304.196 177.344 C 304.107 116.311,304.063 112.639,303.412 111.681 C 302.073 109.711,303.295 109.766,260.752 109.766 C 224.915 109.766,220.695 109.702,220.145 109.152 C 219.213 108.219,219.241 96.281,220.178 95.246 C 220.881 94.468,287.182 94.179,303.125 94.884 C 312.393 95.294,315.866 97.175,317.850 102.863 C 318.563 104.907,318.822 249.183,318.118 252.539 C 317.143 257.192,313.492 260.412,308.163 261.320 C 306.390 261.623,274.535 261.714,198.438 261.635 C 76.324 261.508,88.807 261.905,84.929 258.027 C 81.325 254.423,81.619 261.799,81.734 177.718 L 81.836 103.711 82.926 101.492 C 85.141 96.981,88.301 95.245,94.922 94.901 C 106.919 94.279,179.021 94.514,179.754 95.178 M202.148 132.468 C 204.384 133.088,205.842 134.255,206.678 136.094 C 207.920 138.829,207.801 176.819,206.543 179.307 C 203.888 184.556,196.470 185.029,193.877 180.114 L 192.969 178.393 192.969 158.480 C 192.969 136.832,193.005 136.422,195.123 134.369 C 197.200 132.356,199.498 131.734,202.148 132.468 M182.031 143.315 C 186.593 146.594,186.051 151.406,180.642 155.643 C 165.797 167.270,162.709 185.558,173.025 200.749 C 185.557 219.203,214.698 219.012,227.343 200.392 C 237.453 185.505,234.317 167.583,219.509 155.619 C 216.400 153.107,215.493 151.688,215.528 149.390 C 215.752 134.600,236.789 147.161,243.549 166.121 C 254.139 195.823,231.763 227.344,200.087 227.344 C 165.587 227.344,143.360 191.659,158.761 160.994 C 164.654 149.260,177.123 139.787,182.031 143.315 M227.841 269.454 C 228.754 270.252,229.347 272.433,231.262 282.031 C 233.625 293.875,232.031 292.560,244.475 292.936 C 254.737 293.247,256.449 293.631,258.136 295.999 C 260.067 298.711,260.071 303.688,258.143 304.720 C 257.556 305.034,241.373 305.154,199.867 305.153 L 142.405 305.150 141.515 304.116 C 140.283 302.683,140.278 299.292,141.504 296.860 C 143.223 293.451,145.929 292.948,164.476 292.597 C 166.171 292.565,166.750 291.774,167.352 288.672 C 167.665 287.061,168.570 282.350,169.363 278.203 C 170.298 273.313,171.049 270.363,171.500 269.805 L 172.196 268.945 194.399 268.736 C 221.118 268.483,226.871 268.607,227.841 269.454 " stroke="none" fill="#133f5f" fill-rule="evenodd"></path><path id="path2" d="" stroke="none" fill="#04091e" fill-rule="evenodd"></path></g></svg>
